dist/images/icons/tiktok.svg

<svg width="44" height="44" viewBox="0 0 44 44" fill="none" xmlns="http://www.w3.org/2000/svg">
<path d="M31.2997 0H23.8843V29.971C23.8843 33.5421 21.0324 36.4754 17.4832 36.4754C13.934 36.4754 11.082 33.5421 11.082 29.971C11.082 26.4638 13.8706 23.5941 17.2931 23.4667V15.9421C9.751 16.0695 3.66669 22.2551 3.66669 29.971C3.66669 37.7508 9.87776 44 17.5466 44C25.2153 44 31.4263 37.687 31.4263 29.971V14.6029C34.215 16.6435 37.6374 17.8551 41.25 17.9189V10.3942C35.6728 10.2029 31.2997 5.61159 31.2997 0Z" fill="white"/>
</svg>

<svg width="44" height="44" fill="none" xmlns="http://www.w3.org/2000/svg"><path d="M31.3 0h-7.416v29.971c0 3.571-2.852 6.504-6.4 6.504-3.55 0-6.402-2.933-6.402-6.504 0-3.507 2.789-6.377 6.211-6.504v-7.525c-7.542.128-13.626 6.313-13.626 14.029 0 7.78 6.21 14.029 13.88 14.029 7.668 0 13.88-6.313 13.88-14.029V14.603a17.171 17.171 0 009.823 3.316v-7.525C35.673 10.203 31.3 5.612 31.3 0z" fill="#fff"/></svg>
